; G-Code generated by Simplify3D(R) Version 4.1.2
; Jan 23, 2020 at 7:53:38 AM
; Settings Summary
;   processName,Process1
;   applyToModels,HexPiece_v03_FIRE
;   profileName,White PLA Duet (modified)
;   profileVersion,2019-12-06 09:28:44
;   baseProfile,Default
;   printMaterial,
;   printQuality,
;   printExtruders,
;   extruderName,Primary Extruder
;   extruderToolheadNumber,0
;   extruderDiameter,0.4
;   extruderAutoWidth,1
;   extruderWidth,0.48
;   extrusionMultiplier,1.04
;   extruderUseRetract,1
;   extruderRetractionDistance,1
;   extruderExtraRestartDistance,0
;   extruderRetractionZLift,0
;   extruderRetractionSpeed,3000
;   extruderUseCoasting,0
;   extruderCoastingDistance,0.2
;   extruderUseWipe,0
;   extruderWipeDistance,5
;   primaryExtruder,0
;   layerHeight,0.24
;   topSolidLayers,3
;   bottomSolidLayers,3
;   perimeterOutlines,4
;   printPerimetersInsideOut,1
;   startPointOption,2
;   startPointOriginX,0
;   startPointOriginY,0
;   sequentialIslands,0
;   spiralVaseMode,0
;   firstLayerHeightPercentage,50
;   firstLayerWidthPercentage,100
;   firstLayerUnderspeed,0.25
;   useRaft,0
;   raftExtruder,0
;   raftTopLayers,3
;   raftBaseLayers,2
;   raftOffset,3
;   raftSeparationDistance,0.14
;   raftTopInfill,100
;   aboveRaftSpeedMultiplier,0.3
;   useSkirt,0
;   skirtExtruder,0
;   skirtLayers,1
;   skirtOutlines,2
;   skirtOffset,10
;   usePrimePillar,0
;   primePillarExtruder,999
;   primePillarWidth,12
;   primePillarLocation,7
;   primePillarSpeedMultiplier,1
;   useOozeShield,0
;   oozeShieldExtruder,999
;   oozeShieldOffset,2
;   oozeShieldOutlines,1
;   oozeShieldSidewallShape,1
;   oozeShieldSidewallAngle,30
;   oozeShieldSpeedMultiplier,1
;   infillExtruder,0
;   internalInfillPattern,Full Honeycomb
;   externalInfillPattern,Rectilinear
;   infillPercentage,10
;   outlineOverlapPercentage,40
;   infillExtrusionWidthPercentage,100
;   minInfillLength,5
;   infillLayerInterval,1
;   internalInfillAngles,0,120,-120
;   overlapInternalInfillAngles,0
;   externalInfillAngles,45,-45
;   generateSupport,0
;   supportExtruder,0
;   supportInfillPercentage,13
;   supportExtraInflation,0
;   supportBaseLayers,0
;   denseSupportExtruder,0
;   denseSupportLayers,0
;   denseSupportInfillPercentage,70
;   supportLayerInterval,1
;   supportHorizontalPartOffset,0.3
;   supportUpperSeparationLayers,1
;   supportLowerSeparationLayers,1
;   supportType,1
;   supportGridSpacing,3
;   maxOverhangAngle,45
;   supportAngles,45,135
;   temperatureName,Primary Extruder,Bed
;   temperatureNumber,0,0
;   temperatureSetpointCount,1,1
;   temperatureSetpointLayers,1,1
;   temperatureSetpointTemperatures,220,75
;   temperatureStabilizeAtStartup,1,1
;   temperatureHeatedBed,0,1
;   fanLayers,1,3
;   fanSpeeds,0,100
;   blipFanToFullPower,1
;   adjustSpeedForCooling,1
;   minSpeedLayerTime,10
;   minCoolingSpeedSlowdown,20
;   increaseFanForCooling,1
;   minFanLayerTime,30
;   maxCoolingFanSpeed,100
;   increaseFanForBridging,1
;   bridgingFanSpeed,100
;   use5D,1
;   relativeEdistances,1
;   allowEaxisZeroing,1
;   independentExtruderAxes,0
;   includeM10123,0
;   stickySupport,1
;   applyToolheadOffsets,0
;   gcodeXoffset,0
;   gcodeYoffset,0
;   gcodeZoffset,0
;   overrideMachineDefinition,0
;   machineTypeOverride,0
;   strokeXoverride,200
;   strokeYoverride,200
;   strokeZoverride,200
;   originOffsetXoverride,0
;   originOffsetYoverride,0
;   originOffsetZoverride,0
;   homeXdirOverride,-1
;   homeYdirOverride,-1
;   homeZdirOverride,-1
;   flipXoverride,1
;   flipYoverride,-1
;   flipZoverride,1
;   toolheadOffsets,0,0|0,0|0,0|0,0|0,0|0,0
;   overrideFirmwareConfiguration,0
;   firmwareTypeOverride,RepRap (Marlin/Repetier/Sprinter)
;   GPXconfigOverride,r2
;   baudRateOverride,115200
;   overridePrinterModels,0
;   printerModelsOverride
;   startingGcode,M42 P2 S100		; Turn LED strips to full bright ,M140 S[bed0_temperature]	; Set bed temp,M190 S[bed0_temperature]	; Set bed temp,M104 S[extruder0_temperature] ; Set extruder temp,M220 S100		; Reset speed factor to 100,G28		; Home All axis,G1 Z20		; Z up 10mm,G1 X100 Y100 F2000	; Move to center,G30		; Reset 0 with probe,G29 S1		; Load heatmap,G1 Z20		; Move Z up for heating,M109 S[extruder0_temperature] ; Set extruder temp wait,G1 X0 Y0,G1 Z0.15		; Move to corner of bed,G0 Z0.15 		; Drop to bed,G92 E0		; zero the extruded length,G1 X50 E25 F500 	; Extrude 25mm of filament in a 5cm line,G92 E0 		; zero the extruded length,G1 E-1 F500 		; Retract a little,G1 X80 F4000 		; Quickly wipe away from the filament line,G1 Z0.3 		; Raise and begin printing.,,
;   layerChangeGcode,
;   retractionGcode,
;   toolChangeGcode,
;   endingGcode,G92 Z	; Z to relative,G1 Z3	; Raise Z 3mm,M104 S0	; Extruder temp 0,M140 S0	; Bed temp 0,G28 X Y	; Home,G92 E0	; Relative,G1 E-2 F3000	; Move back,,G90		; Absolute Position,;G1 Z10		; Move Z up,G1 X190 Y190	; Move bed,M84		; Stop idle hold,,M84 E0	; De-energize motors,M42 P2 S50	; Turn LED strips to low,M106 S0	; Disable part cooling fan
;   exportFileFormat,gcode
;   celebration,0
;   celebrationSong,Looney Toons
;   postProcessing,
;   defaultSpeed,3000
;   outlineUnderspeed,0.55
;   solidInfillUnderspeed,0.55
;   supportUnderspeed,0.5
;   rapidXYspeed,7200
;   rapidZspeed,1002
;   minBridgingArea,20
;   bridgingExtraInflation,0
;   bridgingExtrusionMultiplier,1
;   bridgingSpeedMultiplier,0.25
;   useFixedBridgingAngle,0
;   fixedBridgingAngle,0
;   applyBridgingToPerimeters,1
;   filamentDiameters,1.75|1.75|1.75|1.75|1.75|1.75
;   filamentPricesPerKg,25|25|25|25|25|25
;   filamentDensities,1.25|1.25|1.25|1.25|1.25|1.25
;   useMinPrintHeight,0
;   minPrintHeight,45.56
;   useMaxPrintHeight,0
;   maxPrintHeight,20.3
;   useDiaphragm,0
;   diaphragmLayerInterval,20
;   robustSlicing,1
;   mergeAllIntoSolid,0
;   onlyRetractWhenCrossingOutline,1
;   retractBetweenLayers,1
;   useRetractionMinTravel,1
;   retractionMinTravel,3
;   retractWhileWiping,0
;   onlyWipeOutlines,1
;   avoidCrossingOutline,1
;   maxMovementDetourFactor,3
;   toolChangeRetractionDistance,12
;   toolChangeExtraRestartDistance,-0.5
;   toolChangeRetractionSpeed,600
;   externalThinWallType,1
;   internalThinWallType,1
;   thinWallAllowedOverlapPercentage,6
;   singleExtrusionMinLength,0.2
;   singleExtrusionMinPrintingWidthPercentage,20
;   singleExtrusionMaxPrintingWidthPercentage,200
;   singleExtrusionEndpointExtension,0.2
;   horizontalSizeCompensation,0
G90
M83
M107
M42 P2 S100		; Turn LED strips to full bright 
M140 S75	; Set bed temp
M190 S75	; Set bed temp
M104 S220 ; Set extruder temp
M220 S100		; Reset speed factor to 100
G28		; Home All axis
G1 Z20		; Z up 10mm
G1 X100 Y100 F2000	; Move to center
G30		; Reset 0 with probe
G29 S1		; Load heatmap
G1 Z20		; Move Z up for heating
M109 S220 ; Set extruder temp wait
G1 X0 Y0
G1 Z0.15		; Move to corner of bed
G0 Z0.15 		; Drop to bed
G92 E0		; zero the extruded length
G1 X50 E25 F500 	; Extrude 25mm of filament in a 5cm line
G92 E0 		; zero the extruded length
G1 E-1 F500 		; Retract a little
G1 X80 F4000 		; Quickly wipe away from the filament line
G1 Z0.3 		; Raise and begin printing.
; process Process1
; layer 1, Z = 0.120
T0
G1 E-1.0000 F3000
; feature inner perimeter
; tool H0.120 W0.480
G1 Z0.120 F1002
G1 X55.781 Y74.470 F7200
G1 E1.0000 F3000
G1 X100.000 Y48.940 E1.2717 F581
G1 X144.219 Y74.470 E1.2717
G1 X144.219 Y125.530 E1.2717
G1 X100.000 Y151.060 E1.2717
G1 X55.781 Y125.530 E1.2717
G1 X55.781 Y74.470 E1.2717
G1 X55.301 Y74.193 F7200
G1 X100.000 Y48.386 E1.2855 F581
G1 X144.699 Y74.193 E1.2855
G1 X144.699 Y125.807 E1.2855
G1 X100.000 Y151.614 E1.2855
G1 X55.301 Y125.807 E1.2855
G1 X55.301 Y74.193 E1.2855
G1 X54.821 Y73.916 F7200
G1 X100.000 Y47.831 E1.2993 F581
G1 X145.179 Y73.916 E1.2993
G1 X145.179 Y126.084 E1.2993
G1 X100.000 Y152.169 E1.2993
G1 X54.821 Y126.084 E1.2993
G1 X54.821 Y73.916 E1.2993
; feature outer perimeter
G1 X54.341 Y73.639 F7200
G1 X100.000 Y47.277 E1.3131 F413
G1 X145.659 Y73.639 E1.3131
G1 X145.659 Y126.361 E1.3131
G1 X100.000 Y152.723 E1.3131
G1 X54.341 Y126.361 E1.3131
G1 X54.341 Y73.639 E1.3131
; feature solid layer
G1 X56.199 Y125.439 F7200
G1 X56.069 Y125.309 E0.0046 F413
G1 X56.069 Y124.630 E0.0169
G1 X57.805 Y126.366 E0.0612
G1 X59.412 Y127.294 E0.0462
G1 X56.069 Y123.951 E0.1177
G1 X56.069 Y123.272 E0.0169
G1 X61.018 Y128.221 E0.1743
G1 X62.624 Y129.148 E0.0462
G1 X56.069 Y122.593 E0.2309
G1 X56.069 Y121.914 E0.0169
G1 X64.230 Y130.076 E0.2874
G1 X65.836 Y131.003 E0.0462
G1 X56.069 Y121.236 E0.3440
G1 X56.069 Y120.557 E0.0169
G1 X67.442 Y131.930 E0.4006
G1 X69.048 Y132.857 E0.0462
G1 X56.069 Y119.878 E0.4572
G1 X56.069 Y119.199 E0.0169
G1 X70.654 Y133.785 E0.5137
G1 X72.260 Y134.712 E0.0462
G1 X56.069 Y118.520 E0.5703
G1 X56.069 Y117.842 E0.0169
G1 X73.867 Y135.639 E0.6269
G1 X75.473 Y136.567 E0.0462
G1 X56.069 Y117.163 E0.6834
G1 X56.069 Y116.484 E0.0169
G1 X77.079 Y137.494 E0.7400
G1 X78.685 Y138.421 E0.0462
G1 X56.069 Y115.805 E0.7966
G1 X56.069 Y115.126 E0.0169
G1 X80.291 Y139.349 E0.8531
G1 X81.897 Y140.276 E0.0462
G1 X56.069 Y114.447 E0.9097
G1 X56.069 Y113.769 E0.0169
G1 X83.503 Y141.203 E0.9663
G1 X85.109 Y142.130 E0.0462
G1 X56.069 Y113.090 E1.0228
G1 X56.069 Y112.411 E0.0169
G1 X86.715 Y143.058 E1.0794
G1 X88.322 Y143.985 E0.0462
G1 X56.069 Y111.732 E1.1360
G1 X56.069 Y111.053 E0.0169
G1 X89.928 Y144.912 E1.1926
G1 X91.534 Y145.840 E0.0462
G1 X56.069 Y110.374 E1.2491
G1 X56.069 Y109.696 E0.0169
G1 X93.140 Y146.767 E1.3057
G1 X94.746 Y147.694 E0.0462
G1 X56.069 Y109.017 E1.3623
G1 X56.069 Y108.338 E0.0169
G1 X96.352 Y148.621 E1.4188
G1 X97.958 Y149.549 E0.0462
G1 X56.069 Y107.659 E1.4754
G1 X56.069 Y106.980 E0.0169
G1 X99.564 Y150.476 E1.5320
G1 X100.000 Y150.728 E0.0125
G1 X100.314 Y150.546 E0.0090
G1 X56.069 Y106.302 E1.5584
G1 X56.069 Y105.623 E0.0169
G1 X100.744 Y150.298 E1.5735
G1 X101.174 Y150.050 E0.0124
G1 X56.069 Y104.944 E1.5887
G1 X56.069 Y104.265 E0.0169
G1 X101.605 Y149.801 E1.6038
G1 X102.035 Y149.553 E0.0124
G1 X56.069 Y103.586 E1.6190
G1 X56.069 Y102.907 E0.0169
G1 X102.465 Y149.304 E1.6342
G1 X102.896 Y149.056 E0.0124
G1 X56.069 Y102.229 E1.6493
G1 X56.069 Y101.550 E0.0169
G1 X103.326 Y148.807 E1.6645
G1 X103.756 Y148.559 E0.0124
G1 X56.069 Y100.871 E1.6796
G1 X56.069 Y100.192 E0.0169
G1 X104.187 Y148.310 E1.6948
G1 X104.617 Y148.062 E0.0124
G1 X56.069 Y99.513 E1.7099
G1 X56.069 Y98.835 E0.0169
G1 X105.048 Y147.813 E1.7251
G1 X105.478 Y147.565 E0.0124
G1 X56.069 Y98.156 E1.7403
G1 X56.069 Y97.477 E0.0169
G1 X105.908 Y147.316 E1.7554
G1 X106.339 Y147.068 E0.0124
G1 X56.069 Y96.798 E1.7706
G1 X56.069 Y96.119 E0.0169
G1 X106.769 Y146.819 E1.7857
G1 X107.199 Y146.571 E0.0124
G1 X56.069 Y95.440 E1.8009
G1 X56.069 Y94.762 E0.0169
G1 X107.630 Y146.323 E1.8160
G1 X108.060 Y146.074 E0.0124
G1 X56.069 Y94.083 E1.8312
G1 X56.069 Y93.404 E0.0169
G1 X108.490 Y145.826 E1.8464
G1 X108.921 Y145.577 E0.0124
G1 X56.069 Y92.725 E1.8615
G1 X56.069 Y92.046 E0.0169
G1 X109.351 Y145.329 E1.8767
G1 X109.781 Y145.080 E0.0124
G1 X56.069 Y91.367 E1.8918
G1 X56.069 Y90.689 E0.0169
G1 X110.212 Y144.832 E1.9070
G1 X110.642 Y144.583 E0.0124
G1 X56.069 Y90.010 E1.9221
G1 X56.069 Y89.331 E0.0169
G1 X111.073 Y144.335 E1.9373
G1 X111.503 Y144.086 E0.0124
G1 X56.069 Y88.652 E1.9525
G1 X56.069 Y87.973 E0.0169
G1 X111.933 Y143.838 E1.9676
G1 X112.364 Y143.589 E0.0124
G1 X56.069 Y87.295 E1.9828
G1 X56.069 Y86.616 E0.0169
G1 X112.794 Y143.341 E1.9979
G1 X113.224 Y143.092 E0.0124
G1 X56.069 Y85.937 E2.0131
G1 X56.069 Y85.258 E0.0169
G1 X113.655 Y142.844 E2.0282
G1 X114.085 Y142.596 E0.0124
G1 X56.069 Y84.579 E2.0434
G1 X56.069 Y83.900 E0.0169
G1 X114.515 Y142.347 E2.0586
G1 X114.946 Y142.099 E0.0124
G1 X56.069 Y83.222 E2.0737
G1 X56.069 Y82.543 E0.0169
G1 X115.376 Y141.850 E2.0889
G1 X115.806 Y141.602 E0.0124
G1 X56.069 Y81.864 E2.1040
G1 X56.069 Y81.185 E0.0169
G1 X116.237 Y141.353 E2.1192
G1 X116.667 Y141.105 E0.0124
G1 X56.069 Y80.506 E2.1344
G1 X56.069 Y79.827 E0.0169
G1 X117.098 Y140.856 E2.1495
G1 X117.528 Y140.608 E0.0124
G1 X56.069 Y79.149 E2.1647
G1 X56.069 Y78.470 E0.0169
G1 X117.958 Y140.359 E2.1798
G1 X118.389 Y140.111 E0.0124
G1 X56.069 Y77.791 E2.1950
G1 X56.069 Y77.112 E0.0169
G1 X118.819 Y139.862 E2.2101
G1 X119.249 Y139.614 E0.0124
G1 X56.069 Y76.433 E2.2253
G1 X56.069 Y75.755 E0.0169
G1 X119.680 Y139.365 E2.2405
G1 X120.110 Y139.117 E0.0124
G1 X56.069 Y75.076 E2.2556
G1 X56.069 Y74.636 E0.0109
G1 X56.220 Y74.549 E0.0044
G1 X120.540 Y138.869 E2.2654
G1 X120.971 Y138.620 E0.0124
G1 X56.651 Y74.300 E2.2654
G1 X57.081 Y74.052 E0.0124
G1 X121.401 Y138.372 E2.2654
G1 X121.831 Y138.123 E0.0124
G1 X57.512 Y73.803 E2.2654
G1 X57.942 Y73.555 E0.0124
G1 X122.262 Y137.875 E2.2654
G1 X122.692 Y137.626 E0.0124
G1 X58.372 Y73.306 E2.2654
G1 X58.803 Y73.058 E0.0124
G1 X123.122 Y137.378 E2.2654
G1 X123.553 Y137.129 E0.0124
G1 X59.233 Y72.809 E2.2654
G1 X59.663 Y72.561 E0.0124
G1 X123.983 Y136.881 E2.2654
G1 X124.414 Y136.632 E0.0124
G1 X60.094 Y72.312 E2.2654
G1 X60.524 Y72.064 E0.0124
G1 X124.844 Y136.384 E2.2654
G1 X125.274 Y136.135 E0.0124
G1 X60.954 Y71.815 E2.2654
G1 X61.385 Y71.567 E0.0124
G1 X125.705 Y135.887 E2.2654
G1 X126.135 Y135.638 E0.0124
G1 X61.815 Y71.319 E2.2654
G1 X62.245 Y71.070 E0.0124
G1 X126.565 Y135.390 E2.2654
G1 X126.996 Y135.142 E0.0124
G1 X62.676 Y70.822 E2.2654
G1 X63.106 Y70.573 E0.0124
G1 X127.426 Y134.893 E2.2654
G1 X127.856 Y134.645 E0.0124
G1 X63.536 Y70.325 E2.2654
G1 X63.967 Y70.076 E0.0124
G1 X128.287 Y134.396 E2.2654
G1 X128.717 Y134.148 E0.0124
G1 X64.397 Y69.828 E2.2654
G1 X64.828 Y69.579 E0.0124
G1 X129.147 Y133.899 E2.2654
G1 X129.578 Y133.651 E0.0124
G1 X65.258 Y69.331 E2.2654
G1 X65.688 Y69.082 E0.0124
G1 X130.008 Y133.402 E2.2654
G1 X130.439 Y133.154 E0.0124
G1 X66.119 Y68.834 E2.2654
G1 X66.549 Y68.585 E0.0124
G1 X130.869 Y132.905 E2.2654
G1 X131.299 Y132.657 E0.0124
G1 X66.979 Y68.337 E2.2654
G1 X67.410 Y68.088 E0.0124
G1 X131.730 Y132.408 E2.2654
G1 X132.160 Y132.160 E0.0124
G1 X67.840 Y67.840 E2.2654
G1 X68.270 Y67.592 E0.0124
G1 X132.590 Y131.911 E2.2654
G1 X133.021 Y131.663 E0.0124
G1 X68.701 Y67.343 E2.2654
G1 X69.131 Y67.095 E0.0124
G1 X133.451 Y131.415 E2.2654
G1 X133.881 Y131.166 E0.0124
G1 X69.561 Y66.846 E2.2654
G1 X69.992 Y66.598 E0.0124
G1 X134.312 Y130.918 E2.2654
G1 X134.742 Y130.669 E0.0124
G1 X70.422 Y66.349 E2.2654
G1 X70.853 Y66.101 E0.0124
G1 X135.172 Y130.421 E2.2654
G1 X135.603 Y130.172 E0.0124
G1 X71.283 Y65.852 E2.2654
G1 X71.713 Y65.604 E0.0124
G1 X136.033 Y129.924 E2.2654
G1 X136.464 Y129.675 E0.0124
G1 X72.144 Y65.355 E2.2654
G1 X72.574 Y65.107 E0.0124
G1 X136.894 Y129.427 E2.2654
G1 X137.324 Y129.178 E0.0124
G1 X73.004 Y64.858 E2.2654
G1 X73.435 Y64.610 E0.0124
G1 X137.755 Y128.930 E2.2654
G1 X138.185 Y128.681 E0.0124
G1 X73.865 Y64.362 E2.2654
G1 X74.295 Y64.113 E0.0124
G1 X138.615 Y128.433 E2.2654
G1 X139.046 Y128.184 E0.0124
G1 X74.726 Y63.865 E2.2654
G1 X75.156 Y63.616 E0.0124
G1 X139.476 Y127.936 E2.2654
G1 X139.906 Y127.688 E0.0124
G1 X75.586 Y63.368 E2.2654
G1 X76.017 Y63.119 E0.0124
G1 X140.337 Y127.439 E2.2654
G1 X140.767 Y127.191 E0.0124
G1 X76.447 Y62.871 E2.2654
G1 X76.878 Y62.622 E0.0124
G1 X141.197 Y126.942 E2.2654
G1 X141.628 Y126.694 E0.0124
G1 X77.308 Y62.374 E2.2654
G1 X77.738 Y62.125 E0.0124
G1 X142.058 Y126.445 E2.2654
G1 X142.489 Y126.197 E0.0124
G1 X78.169 Y61.877 E2.2654
G1 X78.599 Y61.628 E0.0124
G1 X142.919 Y125.948 E2.2654
G1 X143.349 Y125.700 E0.0124
G1 X79.029 Y61.380 E2.2654
G1 X79.460 Y61.131 E0.0124
G1 X143.780 Y125.451 E2.2654
G1 X143.931 Y125.364 E0.0044
G1 X143.931 Y124.924 E0.0109
G1 X79.890 Y60.883 E2.2556
G1 X80.320 Y60.635 E0.0124
G1 X143.931 Y124.245 E2.2405
G1 X143.931 Y123.567 E0.0169
G1 X80.751 Y60.386 E2.2253
G1 X81.181 Y60.138 E0.0124
G1 X143.931 Y122.888 E2.2101
G1 X143.931 Y122.209 E0.0169
G1 X81.611 Y59.889 E2.1950
G1 X82.042 Y59.641 E0.0124
G1 X143.931 Y121.530 E2.1798
G1 X143.931 Y120.851 E0.0169
G1 X82.472 Y59.392 E2.1647
G1 X82.903 Y59.144 E0.0124
G1 X143.931 Y120.172 E2.1495
G1 X143.931 Y119.494 E0.0169
G1 X83.333 Y58.895 E2.1344
